app/images/arrow-down.svg

<svg width="15" height="16" viewBox="0 0 15 16" fill="none" xmlns="http://www.w3.org/2000/svg">
<g opacity="0.47543">
<mask id="path-1-inside-1" fill="white">
<path fill-rule="evenodd" clip-rule="evenodd" d="M0.707107 7.29289L0 8L7.07107 15.0711L7.77817 14.364L14.1421 8L13.435 7.29289L7.07107 13.6569L0.707107 7.29289Z"/>
</mask>
<path d="M0 8L-0.707107 7.29289L-1.41421 8L-0.707107 8.70711L0 8ZM0.707107 7.29289L1.41421 6.58579L0.707107 5.87868L0 6.58579L0.707107 7.29289ZM7.07107 15.0711L6.36396 15.7782L7.07107 16.4853L7.77817 15.7782L7.07107 15.0711ZM14.1421 8L14.8492 8.70711L15.5563 8L14.8492 7.29289L14.1421 8ZM13.435 7.29289L14.1421 6.58579L13.435 5.87868L12.7279 6.58579L13.435 7.29289ZM7.07107 13.6569L6.36396 14.364L7.07107 15.0711L7.77817 14.364L7.07107 13.6569ZM0.707107 8.70711L1.41421 8L0 6.58579L-0.707107 7.29289L0.707107 8.70711ZM7.77817 14.364L0.707107 7.29289L-0.707107 8.70711L6.36396 15.7782L7.77817 14.364ZM7.07107 13.6569L6.36396 14.364L7.77817 15.7782L8.48528 15.0711L7.07107 13.6569ZM13.435 7.29289L7.07107 13.6569L8.48528 15.0711L14.8492 8.70711L13.435 7.29289ZM12.7279 8L13.435 8.70711L14.8492 7.29289L14.1421 6.58579L12.7279 8ZM7.77817 14.364L14.1421 8L12.7279 6.58579L6.36396 12.9497L7.77817 14.364ZM-4.68327e-09 8L6.36396 14.364L7.77817 12.9497L1.41421 6.58579L-4.68327e-09 8Z" fill="black" mask="url(#path-1-inside-1)"/>
</g>
</svg>

<svg width="15" height="16" fill="none" xmlns="http://www.w3.org/2000/svg"><g opacity=".475"><mask id="a" fill="#fff"><path fill-rule="evenodd" clip-rule="evenodd" d="M.707 7.293L0 8l7.071 7.071.707-.707L14.142 8l-.707-.707-6.364 6.364L.707 7.293z"/></mask><path d="M0 8l-.707-.707-.707.707.707.707L0 8zm.707-.707l.707-.707-.707-.707L0 6.586l.707.707zm6.364 7.778l-.707.707.707.707.707-.707-.707-.707zM14.142 8l.707.707.707-.707-.707-.707-.707.707zm-.707-.707l.707-.707-.707-.707-.707.707.707.707zm-6.364 6.364l-.707.707.707.707.707-.707-.707-.707zM.707 8.707L1.414 8 0 6.586l-.707.707L.707 8.707zm7.071 5.657L.708 7.293-.708 8.707l7.071 7.071 1.414-1.414zm-.707-.707l-.707.707 1.414 1.414.707-.707-1.414-1.414zm6.364-6.364l-6.364 6.364 1.414 1.414 6.364-6.364-1.414-1.414zM12.728 8l.707.707 1.414-1.414-.707-.707L12.728 8zm-4.95 6.364L14.142 8l-1.414-1.414-6.364 6.364 1.414 1.414zM0 8l6.364 6.364 1.414-1.414-6.364-6.364L0 8z" fill="#000" mask="url(#a)"/></g></svg>
